assets/icons/action/new_custom9.svg

<?xml version="1.0"?><svg xmlns="http://www.w3.org/2000/svg" width="52" height="52" viewBox="0 0 52 52"><path fill="#fff" d="m49.5 17.3c-2.3-9.5-12.3-15.3-23.3-15.3-13.4 0-24.2 10.7-24.2 24s10.8 24 24.2 24c18.6 0 17.1-9.4 11.2-13.1-3.5-2.2-5.4-7.3-1.9-10.9 6.5-6.7 17 4 14-8.7z m-36.5 16.7c-2.8 0-5-2.2-5-5s2.2-5 5-5 5 2.2 5 5-2.2 5-5 5z m1-19c0-2.8 2.2-5 5-5s5 2.2 5 5-2.2 5-5 5-5-2.2-5-5z m11 29c-2.8 0-5-2.2-5-5s2.2-5 5-5 5 2.2 5 5-2.2 5-5 5z m9-26c-2.8 0-5-2.2-5-5s2.2-5 5-5 5 2.2 5 5-2.2 5-5 5z"></path></svg>

<svg xmlns="http://www.w3.org/2000/svg" x="0px" y="0px"
	 width="52px" height="52px" viewBox="0 0 52 52" enable-background="new 0 0 52 52" xml:space="preserve">
<path fill="#FFFFFF" d="M49.5,17.3C47.2,7.8,37.2,2,26.2,2C12.8,2,2,12.7,2,26s10.8,24,24.2,24c18.6,0,17.1-9.4,11.2-13.1
	c-3.5-2.2-5.4-7.3-1.9-10.9C42,19.3,52.5,30,49.5,17.3z M13,34c-2.8,0-5-2.2-5-5s2.2-5,5-5s5,2.2,5,5S15.8,34,13,34z M14,15
	c0-2.8,2.2-5,5-5s5,2.2,5,5s-2.2,5-5,5S14,17.8,14,15z M25,44c-2.8,0-5-2.2-5-5s2.2-5,5-5s5,2.2,5,5S27.8,44,25,44z M34,18
	c-2.8,0-5-2.2-5-5s2.2-5,5-5s5,2.2,5,5S36.8,18,34,18z"/>
</svg>
